__todo__/typescript.svg

<svg height="128" preserveAspectRatio="xMidYMid" viewBox="0 0 512 128" width="512" xmlns="http://www.w3.org/2000/svg"><path d="m14 0h484c7.731986 0 14 6.2680135 14 14v99.49004c0 7.731986-6.268014 14-14 14h-484c-7.7319865 0-14-6.268014-14-14v-99.49004c0-7.7319865 6.2680135-14 14-14z" fill="#3178c6"/><path d="m161.569657 46.2854629h17.426359v-8.5484111h-44.876494v8.5484111h17.384032v52.1368479h10.066103zm33.490104 59.0753661 19.633466-50.2851318h-9.944223l-10.87898 31.5762231c-.25804.9679044-.460494 1.7557928-.606853 2.3641753l-.158087.6833466h-.212654c-.226422-.9673944-.406948-1.7231553-.541067-2.2667729l-.223873-.8654024-10.36902-31.4915697h-10.921817l17.296319 43.2583904-2.932271 7.1113944c-1.813418 3.611538-4.561593 5.417817-8.244526 5.417817-1.2749 0-2.691569-.25396-4.249498-.761881v8.169052c1.388112.366661 3.116367.550247 5.184255.550247 7.366375 0 13.089148-4.486629 17.168829-13.459888zm50.546231-51.3050521c5.518789 0 9.820813 1.9317291 12.906072 5.7951872 3.084749 3.8634582 4.627378 9.0523028 4.627378 15.5665339 0 7.219506-1.740494 13.0004144-5.221992 17.343745-3.480988 4.3428207-8.235856 6.5142311-14.264605 6.5142311-5.547347 0-9.820813-2.4253705-12.820909-7.2756016h-.169816v26.3108845h-9.849371v-63.2396494h9.849371v7.6142151h.169816c3.367777-5.7533705 8.292462-8.6295458 14.774056-8.6295458zm-3.439681 8.1593625c-3.506486 0-6.327076 1.2341036-8.461769 3.7023108-2.135203 2.4687171-3.20255 5.5539761-3.20255 9.2562869v5.3433625c0 3.1413546 1.010741 5.8064064 3.032733 7.9941355 2.021992 2.187729 4.588112 3.2815936 7.698359 3.2815936 3.648255 0 6.511171-1.4095299 8.589769-4.2285897 2.078087-2.8185498 3.117386-6.7523824 3.117386-11.801498 0-4.2352191-.968414-7.552-2.905753-9.9503426-1.936829-2.3983426-4.559554-3.597259-7.868175-3.597259zm46.821482-8.1593625c5.89208 0 10.451633 1.9052111 13.678151 5.7156335 3.226518 3.8104223 4.840032 9.1027888 4.840032 15.8765896v3.7680956h-29.376765c.112701 4.0082869 1.340175 7.0986454 3.682932 9.2720956s5.562136 3.2601753 9.658646 3.2601753c4.60188 0 8.82435-1.3830119 12.66843-4.1490358v7.9171315c-3.928223 2.4840159-9.119107 3.7257689-15.572143 3.7257689-6.341355 0-11.314486-1.9689562-14.919905-5.9063586-3.605418-3.9374024-5.408127-9.4765896-5.408127-16.6175617 0-6.745753 1.985275-12.2426136 5.955315-16.4905817 3.970039-4.2479681 8.901354-6.3719522 14.793434-6.3719522zm42.358821-17.3386454c3.626326 0 7.252653.6062406 10.87898 1.8187219v4.3988143c-3.569721-1.6072924-7.380144-2.4108876-11.431267-2.4108876-4.136287 0-7.415841 1.0432765-9.838152 3.1299315-2.42231 2.0866039-3.633466 4.7371219-3.633466 7.9517067 0 3.1015777.828685 5.568765 2.486056 7.4015618 1.65737 1.8327968 5.234231 4.3285418 10.730582 7.4867251 5.694215 3.2142789 9.483729 6.0695458 11.367522 8.5647809 1.884302 2.495745 2.826199 5.3647808 2.826199 8.6071075 0 4.6528765-1.622184 8.4454502-4.86604 11.3777211-3.243857 2.9327809-7.826359 4.3989164-13.747506 4.3989164-2.096446 0-4.511618-.3243347-7.245514-.973004-2.733896-.6481594-4.823713-1.395761-6.26843-2.2412749v-4.7798566c4.363219 2.7634741 8.782534 4.1449562 13.258964 4.1449562 4.759458 0 8.372016-.9796335 10.836653-2.9394104 2.464638-1.9597769 3.697211-4.7018326 3.697211-8.2266773 0-3.1015776-.828685-5.5759043-2.486055-7.42298-1.598216-1.7807809-4.99404-4.1842231-10.188494-7.2108367l-.584415-.3386135c-6.176127-3.5814502-10.085992-6.5774662-11.729083-8.9880478-1.643092-2.4110917-2.464638-5.1954741-2.464638-8.3536574 0-4.2859602 1.67114-7.923353 5.014438-10.9123315 3.343299-2.9889275 7.805451-4.4833657 13.386455-4.4833657zm-42.208893 24.4780876c-2.797131 0-5.167936 1.0341992-7.111904 3.1020877-1.943968 2.0683984-3.139825 4.773737-3.58757 8.1170358h19.888446c-.028048-3.5411633-.853163-6.2964781-2.475346-8.2654342-1.622694-1.9689562-3.860399-2.9536893-6.713626-2.9536893zm80.535968 38.247012c4.494279 0 8.362837-.986263 11.605674-2.9582789v-4.0567331c-3.242837 2.3101195-7.054279 3.4651793-11.434837 3.4651793-4.779347 0-8.626486-1.7042868-11.541928-5.1133705-2.915953-3.4090837-4.373929-7.9166215-4.373929-13.5231235 0-5.8033466 1.593116-10.5291474 4.779347-14.1779124 3.185721-3.6482549 7.338837-5.4723824 12.458837-5.4723824 3.726788 0 7.154231.9577051 10.283346 2.8736255v-4.3948367c-3.129115-1.3524143-6.357673-2.0286215-9.685673-2.0286215-6.429068 0-11.691347 2.1902789-15.787347 6.5713466-4.09651 4.3810677-6.14451 10.0084781-6.14451 16.882741 0 6.5361594 1.820558 11.8254662 5.461674 15.8679204 3.641115 4.0429641 8.434231 6.0644462 14.379346 6.0644462zm37.274518-40.4566693c-1.295299-.935267-2.81549-1.4023905-4.561083-1.4023905-3.407044 0-6.264351 1.7705817-8.573451 5.311745-2.308589 3.5416733-3.463139 8.5703905-3.463139 15.0866614v20.4407331h-3.800733v-43.5164303h3.800733v9.6464064h.169307c.985243-3.3147411 2.547761-5.8925897 4.687553-7.7340558 2.139793-1.8414662 4.61769-2.7624542 7.43318-2.7624542 1.604844 0 3.040892.2549801 4.307633.7649402zm10.199203-3.9098646v43.3466136h-4.079681v-43.3466136zm-1.827697-17.3386454c.889371 0 1.67165.2907793 2.345817.8722868.674677.5815586 1.011761 1.3665913 1.011761 2.3552 0 .9304734-.329944 1.7300909-.990343 2.3988526-.659888.6687618-1.449307 1.0031427-2.367235 1.0031427-.861323 0-1.621673-.319847-2.281562-.9595411-.660398-.639694-.990342-1.4537944-.990342-2.4424542 0-.95949.337083-1.7372812 1.011761-2.3333737.674167-.5960924 1.427888-.8941131 2.260143-.8941131zm31.248829 16.3187251c5.493801 0 9.783076 1.8950119 12.867825 5.6855458s4.627378 8.9411315 4.627378 15.4507729c0 7.2429642-1.768032 13.0978168-5.303586 17.5645578-3.535553 4.466741-8.205259 6.7003665-14.008605 6.7003665-6.479554 0-11.2691-2.9169721-14.368128-8.7504064h-.168797v27.6041435h-3.887936v-63.1983427h3.887936v8.9197132h.168797c1.549769-3.1847012 3.768096-5.6432191 6.656-7.3765737 2.887395-1.7333546 6.063937-2.5997769 9.529116-2.5997769zm-.158088 3.5697211c-5.092972 0-9.033434 1.6884781-11.821896 5.0659442-2.787952 3.3769562-4.182183 7.3454662-4.182183 11.90451v5.4458645c0 4.3341514 1.379952 8.0558407 4.139856 11.1660877 2.759904 3.109737 6.387251 4.6646056 10.88255 4.6646056 4.467251 0 8.094597-1.8924622 10.88306-5.6778965 2.787952-3.7854342 4.182183-8.7595856 4.182183-14.9229641 0-5.4035378-1.28051-9.6953625-3.84102-12.8759841-2.56051-3.1801115-5.974693-4.7701673-10.24255-4.7701673zm36.457562 41.8167331c1.764972 0 3.656414-.4783427 5.673817-1.4350279v-3.6304064c-1.849116 1.0413387-3.572271 1.562008-5.169466 1.562008-2.241785 0-3.831841-.6685578-4.770678-2.0051634-.938326-1.3366055-1.408-3.4962868-1.408-6.4795538v-28.5348207h11.348144v-3.545753h-11.348144v-12.5368605c-.616542.2251474-1.260621.4361689-1.933259.6331665-.672637.2251474-1.316717.4502438-1.933259.6753913v11.2283027h-7.733546v3.545753h7.733546v29.0412112c0 7.654502 3.180112 11.481753 9.540845 11.481753z" fill="#fff"/></svg>

<?xml version="1.0" encoding="UTF-8"?>
<svg width="512px" height="128px" viewBox="0 0 512 128" version="1.1" xmlns="http://www.w3.org/2000/svg" preserveAspectRatio="xMidYMid">
    <title>TypeScript</title>
    <g>
        <path d="M14,0 L498,0 C505.731986,0 512,6.2680135 512,14 L512,113.49004 C512,121.222026 505.731986,127.49004 498,127.49004 L14,127.49004 C6.2680135,127.49004 0,121.222026 0,113.49004 L0,14 C0,6.2680135 6.2680135,0 14,0 Z" fill="#3178C6"></path>
        <path d="M161.569657,46.2854629 L178.996016,46.2854629 L178.996016,37.7370518 L134.119522,37.7370518 L134.119522,46.2854629 L151.503554,46.2854629 L151.503554,98.4223108 L161.569657,98.4223108 L161.569657,46.2854629 Z M195.059761,105.360829 L214.693227,55.0756972 L204.749004,55.0756972 L193.870024,86.6519203 C193.611984,87.6198247 193.40953,88.4077131 193.263171,89.0160956 L193.105084,89.6994422 L192.89243,89.6994422 C192.666008,88.7320478 192.485482,87.9762869 192.351363,87.4326693 L192.12749,86.5672669 L181.75847,55.0756972 L170.836653,55.0756972 L188.132972,98.3340876 L185.200701,105.445482 C183.387283,109.05702 180.639108,110.863299 176.956175,110.863299 C175.681275,110.863299 174.264606,110.609339 172.706677,110.101418 L172.706677,118.27047 C174.094789,118.637131 175.823044,118.820717 177.890932,118.820717 C185.257307,118.820717 190.98008,114.334088 195.059761,105.360829 Z M245.605992,54.0557769 C251.124781,54.0557769 255.426805,55.987506 258.512064,59.8509641 C261.596813,63.7144223 263.139442,68.9032669 263.139442,75.417498 C263.139442,82.637004 261.398948,88.4179124 257.91745,92.761243 C254.436462,97.1040637 249.681594,99.2754741 243.652845,99.2754741 C238.105498,99.2754741 233.832032,96.8501036 230.831936,91.9998725 L230.66212,91.9998725 L230.66212,118.310757 L220.812749,118.310757 L220.812749,55.0711076 L230.66212,55.0711076 L230.66212,62.6853227 L230.831936,62.6853227 C234.199713,56.9319522 239.124398,54.0557769 245.605992,54.0557769 Z M242.166311,62.2151394 C238.659825,62.2151394 235.839235,63.449243 233.704542,65.9174502 C231.569339,68.3861673 230.501992,71.4714263 230.501992,75.1737371 L230.501992,75.1737371 L230.501992,80.5170996 C230.501992,83.6584542 231.512733,86.323506 233.534725,88.5112351 C235.556717,90.6989641 238.122837,91.7928287 241.233084,91.7928287 C244.881339,91.7928287 247.744255,90.3832988 249.822853,87.564239 C251.90094,84.7456892 252.940239,80.8118566 252.940239,75.762741 C252.940239,71.5275219 251.971825,68.210741 250.034486,65.8123984 C248.097657,63.4140558 245.474932,62.2151394 242.166311,62.2151394 Z M288.987793,54.0557769 C294.879873,54.0557769 299.439426,55.960988 302.665944,59.7714104 C305.892462,63.5818327 307.505976,68.8741992 307.505976,75.648 L307.505976,79.4160956 L278.129211,79.4160956 C278.241912,83.4243825 279.469386,86.514741 281.812143,88.6881912 C284.1549,90.8616414 287.374279,91.9483665 291.470789,91.9483665 C296.072669,91.9483665 300.295139,90.5653546 304.139219,87.7993307 L304.139219,95.7164622 C300.210996,98.2004781 295.020112,99.4422311 288.567076,99.4422311 C282.225721,99.4422311 277.25259,97.4732749 273.647171,93.5358725 C270.041753,89.5984701 268.239044,84.0592829 268.239044,76.9183108 C268.239044,70.1725578 270.224319,64.6756972 274.194359,60.4277291 C278.164398,56.179761 283.095713,54.0557769 288.987793,54.0557769 Z M331.346614,36.7171315 C334.97294,36.7171315 338.599267,37.3233721 342.225594,38.5358534 L342.225594,42.9346677 C338.655873,41.3273753 334.84545,40.5237801 330.794327,40.5237801 C326.65804,40.5237801 323.378486,41.5670566 320.956175,43.6537116 C318.533865,45.7403155 317.322709,48.3908335 317.322709,51.6054183 C317.322709,54.706996 318.151394,57.1741833 319.808765,59.0069801 C321.466135,60.8397769 325.042996,63.3355219 330.539347,66.4937052 C336.233562,69.7079841 340.023076,72.563251 341.906869,75.0584861 C343.791171,77.5542311 344.733068,80.4232669 344.733068,83.6655936 C344.733068,88.3184701 343.110884,92.1110438 339.867028,95.0433147 C336.623171,97.9760956 332.040669,99.4422311 326.119522,99.4422311 C324.023076,99.4422311 321.607904,99.1178964 318.874008,98.4692271 C316.140112,97.8210677 314.050295,97.0734661 312.605578,96.2279522 L312.605578,91.4480956 C316.968797,94.2115697 321.388112,95.5930518 325.864542,95.5930518 C330.624,95.5930518 334.236558,94.6134183 336.701195,92.6536414 C339.165833,90.6938645 340.398406,87.9518088 340.398406,84.4269641 C340.398406,81.3253865 339.569721,78.8510598 337.912351,77.0039841 C336.314135,75.2232032 332.918311,72.819761 327.723857,69.7931474 L327.139442,69.4545339 C320.963315,65.8730837 317.05345,62.8770677 315.410359,60.4664861 C313.767267,58.0553944 312.945721,55.271012 312.945721,52.1128287 C312.945721,47.8268685 314.616861,44.1894757 317.960159,41.2004972 C321.303458,38.2115697 325.76561,36.7171315 331.346614,36.7171315 Z M289.137721,61.1952191 C286.34059,61.1952191 283.969785,62.2294183 282.025817,64.2973068 C280.081849,66.3657052 278.885992,69.0710438 278.438247,72.4143426 L278.438247,72.4143426 L298.326693,72.4143426 C298.298645,68.8731793 297.47353,66.1178645 295.851347,64.1489084 C294.228653,62.1799522 291.990948,61.1952191 289.137721,61.1952191 Z M369.673689,99.4422311 C374.167968,99.4422311 378.036526,98.4559681 381.279363,96.4839522 L381.279363,92.4272191 C378.036526,94.7373386 374.225084,95.8923984 369.844526,95.8923984 C365.065179,95.8923984 361.21804,94.1881116 358.302598,90.7790279 C355.386645,87.3699442 353.928669,82.8624064 353.928669,77.2559044 C353.928669,71.4525578 355.521785,66.726757 358.708016,63.077992 C361.893737,59.4297371 366.046853,57.6056096 371.166853,57.6056096 C374.893641,57.6056096 378.321084,58.5633147 381.450199,60.4792351 L381.450199,56.0843984 C378.321084,54.7319841 375.092526,54.0557769 371.764526,54.0557769 C365.335458,54.0557769 360.073179,56.2460558 355.977179,60.6271235 C351.880669,65.0081912 349.832669,70.6356016 349.832669,77.5098645 C349.832669,84.0460239 351.653227,89.3353307 355.294343,93.3777849 C358.935458,97.420749 363.728574,99.4422311 369.673689,99.4422311 Z M406.948207,58.9855618 C405.652908,58.0502948 404.132717,57.5831713 402.387124,57.5831713 C398.98008,57.5831713 396.122773,59.353753 393.813673,62.8949163 C391.505084,66.4365896 390.350534,71.4653068 390.350534,77.9815777 L390.350534,98.4223108 L386.549801,98.4223108 L386.549801,54.9058805 L390.350534,54.9058805 L390.350534,64.5522869 L390.519841,64.5522869 C391.505084,61.2375458 393.067602,58.6596972 395.207394,56.8182311 C397.347187,54.9767649 399.825084,54.0557769 402.640574,54.0557769 C404.245418,54.0557769 405.681466,54.310757 406.948207,54.8207171 L406.948207,58.9855618 Z M417.14741,55.0756972 L417.14741,98.4223108 L413.067729,98.4223108 L413.067729,55.0756972 L417.14741,55.0756972 Z M415.319713,37.7370518 C416.209084,37.7370518 416.991363,38.0278311 417.66553,38.6093386 C418.340207,39.1908972 418.677291,39.9759299 418.677291,40.9645386 C418.677291,41.895012 418.347347,42.6946295 417.686948,43.3633912 C417.02706,44.032153 416.237641,44.3665339 415.319713,44.3665339 C414.45839,44.3665339 413.69804,44.0466869 413.038151,43.4069928 C412.377753,42.7672988 412.047809,41.9531984 412.047809,40.9645386 C412.047809,40.0050486 412.384892,39.2272574 413.05957,38.6311649 C413.733737,38.0350725 414.487458,37.7370518 415.319713,37.7370518 Z M446.568542,54.0557769 C452.062343,54.0557769 456.351618,55.9507888 459.436367,59.7413227 C462.521116,63.5318566 464.063745,68.6824542 464.063745,75.1920956 C464.063745,82.4350598 462.295713,88.2899124 458.760159,92.7566534 C455.224606,97.2233944 450.5549,99.4570199 444.751554,99.4570199 C438.272,99.4570199 433.482454,96.5400478 430.383426,90.7066135 L430.383426,90.7066135 L430.214629,90.7066135 L430.214629,118.310757 L426.326693,118.310757 L426.326693,55.1124143 L430.214629,55.1124143 L430.214629,64.0321275 L430.383426,64.0321275 C431.933195,60.8474263 434.151522,58.3889084 437.039426,56.6555538 C439.926821,54.9221992 443.103363,54.0557769 446.568542,54.0557769 Z M446.410454,57.625498 C441.317482,57.625498 437.37702,59.3139761 434.588558,62.6914422 C431.800606,66.0683984 430.406375,70.0369084 430.406375,74.5959522 L430.406375,80.0418167 C430.406375,84.3759681 431.786327,88.0976574 434.546231,91.2079044 C437.306135,94.3176414 440.933482,95.87251 445.428781,95.87251 C449.896032,95.87251 453.523378,93.9800478 456.311841,90.1946135 C459.099793,86.4091793 460.494024,81.4350279 460.494024,75.2716494 C460.494024,69.8681116 459.213514,65.5762869 456.653004,62.3956653 C454.092494,59.2155538 450.678311,57.625498 446.410454,57.625498 Z M482.868016,99.4422311 C484.632988,99.4422311 486.52443,98.9638884 488.541833,98.0072032 L488.541833,94.3767968 C486.692717,95.4181355 484.969562,95.9388048 483.372367,95.9388048 C481.130582,95.9388048 479.540526,95.270247 478.601689,93.9336414 C477.663363,92.5970359 477.193689,90.4373546 477.193689,87.4540876 L477.193689,58.9192669 L488.541833,58.9192669 L488.541833,55.3735139 L477.193689,55.3735139 L477.193689,42.8366534 C476.577147,43.0618008 475.933068,43.2728223 475.26043,43.4698199 C474.587793,43.6949673 473.943713,43.9200637 473.327171,44.1452112 L473.327171,55.3735139 L465.593625,55.3735139 L465.593625,58.9192669 L473.327171,58.9192669 L473.327171,87.9604781 C473.327171,95.6149801 476.507283,99.4422311 482.868016,99.4422311 L482.868016,99.4422311 Z" fill="#FFFFFF"></path>
    </g>
</svg>
